svg/subtitles.svg

<svg xmlns="http://www.w3.org/2000/svg" viewBox="0 0 24 24"><path d="M20 4H4a2 2 0 0 0-2 2v12a2 2 0 0 0 2 2h16a2 2 0 0 0 2-2V6a2 2 0 0 0-2-2M4 12h4v2H4zm10 6H4v-2h10zm6 0h-4v-2h4zm0-4H10v-2h10z"/></svg>

<?xml version="1.0" encoding="UTF-8"?><!DOCTYPE svg PUBLIC "-//W3C//DTD SVG 1.1//EN" "http://www.w3.org/Graphics/SVG/1.1/DTD/svg11.dtd"><svg xmlns="http://www.w3.org/2000/svg" xmlns:xlink="http://www.w3.org/1999/xlink" version="1.1" id="mdi-subtitles" width="24" height="24" viewBox="0 0 24 24"><path d="M20,4H4A2,2 0 0,0 2,6V18A2,2 0 0,0 4,20H20A2,2 0 0,0 22,18V6A2,2 0 0,0 20,4M4,12H8V14H4V12M14,18H4V16H14V18M20,18H16V16H20V18M20,14H10V12H20V14Z" /></svg>
